X:1
T:Title
%%score { 1 | 2 }
L:1/8
Q:1/4=87
M:6/8
K:D
V:1 treble nm="Grand Piano"
V:2 bass 
V:1
 FGF FED | [DA][DA][EA] .[DA]3 | [FA][GB][FA] FED | [DF]3 .[CE]3 | FGF FED | [CA][DA][EA] .[DA]3 | %6
w: J.~H.~Hall * * * * *||||||
 [FA][GB][FA] FED | [CE]3 .D3 | [Fd][Gd][Fd] [Fd][FA][FA] | [GB]3 .[FA]3 | [FA][GB][FA] FED | %11
w: |||||
 [DF]3 .[CE]3 | [Fd][Gd]d [Fd][FA][FA] | [GB]3 .[FA]3 |[M:13/16] [FA]ABFF3/2[CE] |[M:3/4] D6 |] %16
w: |||||
V:2
 [D,A,D][D,B,D][D,A,D] [D,A,D][D,G,D][D,F,] | [A,,E,][A,,F,][A,,G,] .[D,F,]3 | %2
 [D,D][D,D][D,D] [D,A,D][D,G,D][D,F,] | [A,,A,]3 .[A,,A,]3 | %4
 [D,A,D][D,B,D][D,A,D] [D,A,D][D,G,D][D,F,] | [A,,E,][A,,F,][A,,G,] .[D,F,]3 | %6
 [D,D][D,D][D,D] [D,A,D][D,G,D][D,F,] | [A,,G,]3 .[D,F,]3 | [D,A,][D,B,][D,A,] [D,A,][D,D][D,D] | %9
 [G,D]3 .[D,D]3 | [D,D][D,D][D,D] [D,A,D][D,G,D][D,F,] | [A,,A,]3 .[A,,A,]3 | %12
 [D,A,][D,B,][D,A,] [D,A,][D,D][D,D] | [G,D]3 .[D,D]3 | %14
[M:13/16] [D,D][F,D][G,D][A,D][A,D]3/2[A,,G,] |[M:3/4] [D,F,]6 |] %16

